X:14
T: Dobbin's flowery vale, S. 58
N: I0513
O: Irland
S: O BOYLE, Sean: 25 Irish Folksongs, Dublin 1976]
R: "Irish Street Ballad", erzählendes, historisches Lied]
M: 4/4
L: 1/8
K: C
_ed | c2c_BG2F_E | F2G2_B,3C | _E2F2GFG_B | c6
_ed | c2c_BG2F_E | F2G2_B,3C | _E2FEC3C | C6
G2 | _B3GB2c2 | _e3cd2ed | c3_BGFGB | c6
_ed | c2c_BG2F_E | F2G2_B,3C | _E2FEC3C | C6

